assets/azuresecuritybaselines/original.svg

<svg height="18" viewBox="0 0 18 18" width="18" xmlns="http://www.w3.org/2000/svg" xmlns:xlink="http://www.w3.org/1999/xlink"><linearGradient id="a" gradientUnits="userSpaceOnUse" x1="11.08" x2="3.17" y1="13.63" y2="-.04"><stop offset="0" stop-color="#5e9624"/><stop offset=".26" stop-color="#70a828"/><stop offset=".79" stop-color="#9fd732"/><stop offset="1" stop-color="#b4ec36"/></linearGradient><path d="m12.38 7.12c0 3.81-4.7 6.88-5.72 7.5a.35.35 0 0 1 -.39 0c-1.02-.62-5.71-3.69-5.71-7.5v-4.59a.37.37 0 0 1 .36-.36c3.65-.1 2.81-1.67 5.55-1.67s1.89 1.57 5.53 1.67a.38.38 0 0 1 .37.36z" fill="#86d633"/><path d="m11.89 7.16c0 3.5-4.31 6.31-5.24 6.88a.33.33 0 0 1 -.36 0c-.94-.57-5.24-3.38-5.24-6.88v-4.16a.33.33 0 0 1 .33-.33c3.35-.14 2.62-1.58 5.09-1.58s1.74 1.44 5.08 1.53a.34.34 0 0 1 .34.33z" fill="url(#a)"/><path d="m6.29 8.65h10.78a.35.35 0 0 1 .37.33v8.19a.35.35 0 0 1 -.37.33h-10.78a.36.36 0 0 1 -.37-.33v-8.17a.36.36 0 0 1 .37-.35" fill="#9cebff"/><g fill="#0078d4"><path d="m6.27 8.65h10.82a.33.33 0 0 1 .35.31v1.24h-11.52v-1.2a.33.33 0 0 1 .35-.31zm9.6 4.76h-7.11c-.16 0-.28.08-.28.16v.43c0 .09.12.16.28.16h7.11c.16 0 .29-.07.29-.16v-.4c0-.11-.16-.19-.29-.19m-0-1.8h-7.11c-.16 0-.28.07-.28.16v.39c0 .09.12.16.28.16h7.11c.16 0 .29-.07.29-.16v-.39c0-.09-.16-.16-.29-.16m-0 3.83h-7.11c-.16 0-.28.07-.28.16v.4c0 .09.12.16.28.16h7.11c.16 0 .29-.07.29-.16v-.4c0-.09-.16-.16-.29-.16"/><circle cx="7.3" cy="11.96" r=".47"/><circle cx="7.3" cy="13.77" r=".47"/><circle cx="7.3" cy="15.8" r=".47"/></g></svg>

<svg xmlns="http://www.w3.org/2000/svg" width="18" height="18" viewBox="0 0 18 18"><linearGradient id="a" x1="11.08" x2="3.17" y1="13.63" y2="-.04" gradientUnits="userSpaceOnUse"><stop offset="0" stop-color="#5e9624"/><stop offset=".26" stop-color="#70a828"/><stop offset=".79" stop-color="#9fd732"/><stop offset="1" stop-color="#b4ec36"/></linearGradient><path fill="#86d633" d="M12.38 7.12c0 3.81-4.7 6.88-5.72 7.5a.35.35 0 0 1-.39 0C5.25 14 .56 10.93.56 7.12V2.53a.37.37 0 0 1 .36-.36C4.57 2.07 3.73.5 6.47.5S8.36 2.07 12 2.17a.38.38 0 0 1 .37.36z"/><path fill="url(#a)" d="M11.89 7.16c0 3.5-4.31 6.31-5.24 6.88a.33.33 0 0 1-.36 0c-.94-.57-5.24-3.38-5.24-6.88V3a.33.33 0 0 1 .33-.33C4.73 2.53 4 1.09 6.47 1.09s1.74 1.44 5.08 1.53a.34.34 0 0 1 .34.33z"/><path fill="#9cebff" d="M6.29 8.65h10.78a.35.35 0 0 1 .37.33v8.19a.35.35 0 0 1-.37.33H6.29a.36.36 0 0 1-.37-.33V9a.36.36 0 0 1 .37-.35"/><g fill="#0078d4"><path d="M6.27 8.65h10.82a.33.33 0 0 1 .35.31v1.24H5.92V9a.33.33 0 0 1 .35-.31zm9.6 4.76H8.76c-.16 0-.28.08-.28.16V14c0 .09.12.16.28.16h7.11c.16 0 .29-.07.29-.16v-.4c0-.11-.16-.19-.29-.19m0-1.8H8.76c-.16 0-.28.07-.28.16v.39c0 .09.12.16.28.16h7.11c.16 0 .29-.07.29-.16v-.39c0-.09-.16-.16-.29-.16m0 3.83H8.76c-.16 0-.28.07-.28.16v.4c0 .09.12.16.28.16h7.11c.16 0 .29-.07.29-.16v-.4c0-.09-.16-.16-.29-.16"/><circle cx="7.3" cy="11.96" r=".47"/><circle cx="7.3" cy="13.77" r=".47"/><circle cx="7.3" cy="15.8" r=".47"/></g></svg>
